X: 39099
T: Sweeney's Wheel
R: reel
M: 4/4
K: Dmajor
B2 dB FBdB|GBdB cdec|B2 dB FBdB|1 cBAB cd ec:|2 cBAB cd ef||
ge ~e2 geaf|ge ~e2 g3 f|geaf gfed|cdef g3 a:|
ba ~a2 fd ~d2|cdef g3 a|ba ~a2 fedB|ABcd efga:|
fdAd FdAd|fdAd cdeg|fdAd FdAd|1 cBAB cdeg:|2 cBAB cdec||
Ad ~d2 adfd|adfd cd ec|Ad ~d2 adfd|cBAB cdec:|

